packages/ffe-icons/icons/open/400/sm/communities.svg

<svg xmlns="http://www.w3.org/2000/svg" height="20" viewBox="0 -960 960 960" width="20"><path d="M360.248-312Q395-312 419.5-336.748t24.5-59.5Q444-431 419.252-455.5t-59.5-24.5Q325-480 300.5-455.252t-24.5 59.5Q276-361 300.748-336.5t59.5 24.5Zm240 0Q635-312 659.5-336.748t24.5-59.5Q684-431 659.252-455.5t-59.5-24.5Q565-480 540.5-455.252t-24.5 59.5Q516-361 540.748-336.5t59.5 24.5Zm-120-204Q515-516 539.5-540.748t24.5-59.5Q564-635 539.252-659.5t-59.5-24.5Q445-684 420.5-659.252t-24.5 59.5Q396-565 420.748-540.5t59.5 24.5Zm.028 420Q401-96 331-126q-70-30-122.5-82.5T126-330.958q-30-69.959-30-149.5Q96-560 126-629.5t82.5-122Q261-804 330.958-834q69.959-30 149.5-30Q560-864 629.5-834t122 82.5Q804-699 834-629.276q30 69.725 30 149Q864-401 834-331q-30 70-82.5 122.5T629.276-126q-69.725 30-149 30ZM480-168q130 0 221-91t91-221q0-130-91-221t-221-91q-130 0-221 91t-91 221q0 130 91 221t221 91Zm0-312Z"/></svg>

<svg xmlns="http://www.w3.org/2000/svg" height="20" viewBox="0 -960 960 960" width="20"><path d="M360.25-312q34.75 0 59.25-24.75t24.5-59.5q0-34.75-24.75-59.25t-59.5-24.5q-34.75 0-59.25 24.75t-24.5 59.5q0 34.75 24.75 59.25t59.5 24.5Zm240 0q34.75 0 59.25-24.75t24.5-59.5q0-34.75-24.75-59.25t-59.5-24.5q-34.75 0-59.25 24.75t-24.5 59.5q0 34.75 24.75 59.25t59.5 24.5Zm-120-204q34.75 0 59.25-24.75t24.5-59.5q0-34.75-24.75-59.25t-59.5-24.5q-34.75 0-59.25 24.75t-24.5 59.5q0 34.75 24.75 59.25t59.5 24.5Zm.03 420Q401-96 331-126t-122.5-82.5Q156-261 126-330.96t-30-149.5Q96-560 126-629.5q30-69.5 82.5-122T330.96-834q69.96-30 149.5-30t149.04 30q69.5 30 122 82.5T834-629.28q30 69.73 30 149Q864-401 834-331t-82.5 122.5Q699-156 629.28-126q-69.73 30-149 30Zm-.28-72q130 0 221-91t91-221q0-130-91-221t-221-91q-130 0-221 91t-91 221q0 130 91 221t221 91Zm0-312Z"/></svg>
